X:1
T:St. Denys (Spinney), 66.66
T:St. Denys (Spinney), 66.66
T:Frank S. Spinney, 1876
T:Public Domain Courtesy of the Cyber Hymnal™
C:Frank S. Spinney, 1876
Z:Public Domain
Z:Courtesy of the Cyber Hymnal™
%%score ( 1 2 ) ( 3 4 )
L:1/8
Q:1/4=115
M:4/4
K:D
V:1 treble 
V:2 treble 
V:3 bass 
V:4 bass 
V:1
 [Fd]2 | [^Ec]2 [EB]2 [FA]2 [DF]2 | ([DA]4 [CG]2) [CE]2 | D2 [=C^D]2 [B,E]2 [=DB]2 | A6 [CG]2 | %5
 [DF]2 [CG]2 [DA]2 [D^A]2 | [DB]2 [^Ed]2 [Ec]2 [EB]2 | A6 [EG]2 | [DF]6 |] %9
V:2
 x2 | x8 | x8 | D2 x6 | (D4 C2) x2 | x8 | x8 | (F2 E2 D2) x2 | x6 |] %9
V:3
 [D,A,]2 | [D,^G,]2 [D,G,]2 [D,A,]2 [D,A,]2 | (F,4 E,2) [A,,G,]2 | %3
 [B,,F,]2 [A,,F,]2 [G,,G,]2 [G,,G,]2 | (F,4 E,2) [A,,A,]2 | [D,A,]2 [E,A,]2 [F,A,]2 [F,D]2 | %6
 [G,D]2 [^G,B,]2 [G,C]2 [G,D]2 | (D2 C2 B,2) [A,,C]2 | [D,D]6 |] %9
V:4
 x2 | x8 | A,,6 x2 | x8 | A,,6 x2 | x8 | x8 | A,6 x2 | x6 |] %9

